public/svgs/light/abacus.svg

<svg xmlns="http://www.w3.org/2000/svg" viewBox="0 0 576 512"><!-- Font Awesome Pro 6.0.0-alpha2 by @fontawesome - https://fontawesome.com License - https://fontawesome.com/license (Commercial License) --><path d="M512 32H64C28.654 32 0 60.652 0 96V416C0 451.346 28.654 480 64 480H512C547.348 480 576 451.346 576 416V96C576 60.652 547.348 32 512 32ZM512 64C529.645 64 544 78.355 544 96V192H448V160H464C472.844 160 480 152.844 480 144S472.844 128 464 128H448V64H512ZM416 64V128H400C391.156 128 384 135.156 384 144S391.156 160 400 160H416V192H288V160H304C312.844 160 320 152.844 320 144S312.844 128 304 128H288V64H416ZM256 64V128H240C231.156 128 224 135.156 224 144S231.156 160 240 160H256V192H160V160H176C184.844 160 192 152.844 192 144S184.844 128 176 128H160V64H256ZM32 96C32 78.355 46.355 64 64 64H128V128H112C103.156 128 96 135.156 96 144S103.156 160 112 160H128V192H32V96ZM64 448C46.355 448 32 433.645 32 416V224H128V288H112C103.156 288 96 295.156 96 304S103.156 320 112 320H128V352H112C103.156 352 96 359.156 96 368S103.156 384 112 384H128V448H64ZM160 448V384H176C184.844 384 192 376.844 192 368S184.844 352 176 352H160V320H176C184.844 320 192 312.844 192 304S184.844 288 176 288H160V224H256V288H240C231.156 288 224 295.156 224 304S231.156 320 240 320H256V352H240C231.156 352 224 359.156 224 368S231.156 384 240 384H256V448H160ZM288 448V384H304C312.844 384 320 376.844 320 368S312.844 352 304 352H288V320H304C312.844 320 320 312.844 320 304S312.844 288 304 288H288V224H416V352H400C391.156 352 384 359.156 384 368S391.156 384 400 384H416V448H288ZM544 416C544 433.645 529.645 448 512 448H448V384H464C472.844 384 480 376.844 480 368S472.844 352 464 352H448V224H544V416Z"/></svg>

<svg xmlns="http://www.w3.org/2000/svg" viewBox="0 0 576 512"><!--! Font Awesome Pro 6.5.1 by @fontawesome - https://fontawesome.com License - https://fontawesome.com/license (Commercial License) Copyright 2023 Fonticons, Inc. --><path d="M512 64c17.7 0 32 14.3 32 32v96H448V160h16c8.8 0 16-7.2 16-16s-7.2-16-16-16H448V64h64zm-96 64H400c-8.8 0-16 7.2-16 16s7.2 16 16 16h16v32H288V160h16c8.8 0 16-7.2 16-16s-7.2-16-16-16H288V64H416v64zm-160 0H240c-8.8 0-16 7.2-16 16s7.2 16 16 16h16v32H160V160h16c8.8 0 16-7.2 16-16s-7.2-16-16-16H160V64h96v64zm-128 0H112c-8.8 0-16 7.2-16 16s7.2 16 16 16h16v32H32V96c0-17.7 14.3-32 32-32h64v64zM32 416V224h96v64H112c-8.8 0-16 7.2-16 16s7.2 16 16 16h16v32H112c-8.8 0-16 7.2-16 16s7.2 16 16 16h16v64H64c-17.7 0-32-14.3-32-32zm128-32h16c8.8 0 16-7.2 16-16s-7.2-16-16-16H160V320h16c8.8 0 16-7.2 16-16s-7.2-16-16-16H160V224h96v64H240c-8.8 0-16 7.2-16 16s7.2 16 16 16h16v32H240c-8.8 0-16 7.2-16 16s7.2 16 16 16h16v64H160V384zm128-64h16c8.8 0 16-7.2 16-16s-7.2-16-16-16H288V224H416V352H400c-8.8 0-16 7.2-16 16s7.2 16 16 16h16v64H288V384h16c8.8 0 16-7.2 16-16s-7.2-16-16-16H288V320zm160 64h16c8.8 0 16-7.2 16-16s-7.2-16-16-16H448V224h96V416c0 17.7-14.3 32-32 32H448V384zM64 32C28.7 32 0 60.7 0 96V416c0 35.3 28.7 64 64 64H512c35.3 0 64-28.7 64-64V96c0-35.3-28.7-64-64-64H64z"/></svg>
